X:187
T:Caw hawkey through the water. Ru1.187
%%VWML:RutherfordVol1-2248-p74-0p74
Z:Transcription by Village Music Project, Steve Mansfield July 2015
F:http://www.village-music-project.org.uk/
F:http://www.vwml.org/record/RutherfordVol1/2248/p74
L:1/8
W:Foot it to your Partner and hands cross Quite
W:round with the second Couple .| The same Back
W:again .| foot it to your Partner and turn her .|
W:foot it again and right hand and Left into the
W:second Couples Place :|
Q:2/4=60
K:Am
|:A | c/c/c ce d/d/d de | c/c/c ce BGGB | c/c/c ce d/d/d df | e2 (Tg^f/g/) aAA :|
|: g | a/g/f/e/ dc de g2 | a/g/f/e/ gd BGGg | a/g/f/e/ dc de ga | eagb aAA :|]
T:Dill stick the Minister. Ru1.188
B:Rutherford's Country Dances Vol 1, 1756
Z:village music project, Steve Mansfield July 2015
M:C|
L:1/8
W:The first Couple foots it and Casts of[f] foot it again
W:and Lead through the third Couple :| Foot it Corners
W:and turn .|. foot it the other Corners and
W:turn your own Partners :|
Q:2/4=60
K:Em
|:E | A/A/A AA B2GB | c2T(B>A) d/c/B/A/ GB | A/A/A AA B2GB | c2T(B>A) GEE :|
|: g | egeg dgdB | efef geea | egeg dgdB | c2(B>A) GEE :|]
